X:55
T: Drei Soldaten
N: D0059
O: Europa, Mitteleuropa, Lothringen, Hambach
N: Verzierung; Inzipit = Variante zum Lied
R: Ballade, Liebe, Freibitte fuer den Geliebten
M: 4/4
L: 1/8
K: D
D2 | D3EF2GG | A3BA2
d2 | cBA2BcB2 | A4z2
A2 | d2A2BcB2 | A3GF2
B2 | B2A2AFAF | F2D2E2
AB | A2EGF2E2 | D4z2

